packages/elements/bolt-icon/src/svgs/media.svg

<svg enable-background="new 0 0 32 32" viewBox="0 0 32 32" xmlns="http://www.w3.org/2000/svg"><g clip-rule="evenodd" fill="#151619" fill-rule="evenodd" transform="translate(0 -1)"><path d="m6.9 17.3v11.4c0 .9-.7 1.6-1.6 1.6h-1c-.9 0-1.6-.7-1.6-1.6v-11.4zm22.5-13.7v25.1c0 .9-.7 1.6-1.6 1.6h-18.7c.2-.5.3-1.1.3-1.6v-25.1zm-22.5-2.6v13.7h-6.9v14c0 2.4 1.9 4.3 4.2 4.3h23.5c2.3 0 4.2-1.9 4.2-4.2v-27.8z"/><path d="m10.8 7.5h17.3v-2.6h-17.3z"/><path d="m10.8 24.2h17.3v-2.6h-17.3z"/><path d="m10.8 28.1h17.3v-2.6h-17.3z"/><path d="m13.4 17.7h12.1v-6.2h-12.1zm-2.6 2.6h17.3v-11.5h-17.3z"/></g></svg>

<?xml version="1.0" encoding="utf-8"?>
<!-- Generator: Adobe Illustrator 25.2.0, SVG Export Plug-In . SVG Version: 6.00 Build 0)  -->
<svg version="1.1" id="Layer_1" xmlns="http://www.w3.org/2000/svg" xmlns:xlink="http://www.w3.org/1999/xlink" x="0px" y="0px"
	 viewBox="0 0 32 32" style="enable-background:new 0 0 32 32;" xml:space="preserve">
<style type="text/css">
	.st0{fill-rule:evenodd;clip-rule:evenodd;fill:#151619;}
</style>
<g transform="translate(0 -1)">
	<path class="st0" d="M6.9,17.3v11.4c0,0.9-0.7,1.6-1.6,1.6h-1c-0.9,0-1.6-0.7-1.6-1.6V17.3H6.9z M29.4,3.6v25.1
		c0,0.9-0.7,1.6-1.6,1.6H9.1c0.2-0.5,0.3-1.1,0.3-1.6V3.6H29.4z M6.9,1v13.7H0v14C0,31.1,1.9,33,4.2,33h23.5c2.3,0,4.2-1.9,4.2-4.2
		V1H6.9z"/>
	<path class="st0" d="M10.8,7.5h17.3V4.9H10.8V7.5z"/>
	<path class="st0" d="M10.8,24.2h17.3v-2.6H10.8V24.2z"/>
	<path class="st0" d="M10.8,28.1h17.3v-2.6H10.8V28.1z"/>
	<path class="st0" d="M13.4,17.7h12.1v-6.2H13.4L13.4,17.7z M10.8,20.3h17.3V8.8H10.8L10.8,20.3z"/>
</g>
</svg>
